images/google-icon.svg

<svg xmlns="http://www.w3.org/2000/svg" width="512" height="512" viewBox="0 0 512 512"><path d="M462 141.347h-54.621v54.622h-27.311v-54.622h-54.622v-27.311h54.622v-54.62h27.311v54.621h54.621v27.31zm-154.417 225.913c0 40.943-37.384 90.787-131.434 90.787-68.784 0-126.149-29.668-126.149-79.569 0-38.514 24.383-88.511 138.323-88.511-16.922-13.792-21.075-33.077-10.733-53.959-66.714 0-100.879-39.222-100.879-89.023 0-48.731 36.242-93.032 110.15-93.032h118.398l-26.457 27.77h-31.079c21.925 12.562 33.586 38.433 33.586 66.949 0 26.175-14.413 47.375-34.983 63.279-36.503 28.222-27.158 43.98 11.087 71.872 37.708 28.251 50.17 50.059 50.17 83.437zm-73.845-216.807c-5.506-41.905-32.806-76.284-64.704-77.243-31.909-.949-53.309 31.119-47.798 73.035 5.509 41.905 35.834 71.178 67.749 72.139 31.897.949 50.257-26.021 44.753-67.931zm32.893 221.01c0-34.466-31.441-67.317-84.192-67.317-47.542-.523-87.832 30.042-87.832 65.471 0 36.154 34.335 66.25 81.879 66.25 60.781-.001 90.145-28.25 90.145-64.404z"/></svg>

<?xml version="1.0" encoding="utf-8"?>


<!-- The icon can be used freely in both personal and commercial projects with no attribution required, but always appreciated. 
You may NOT sub-license, resell, rent, redistribute or otherwise transfer the icon without express written permission from iconmonstr.com -->


<!DOCTYPE svg PUBLIC "-//W3C//DTD SVG 1.1//EN" "http://www.w3.org/Graphics/SVG/1.1/DTD/svg11.dtd">

<svg version="1.1" xmlns="http://www.w3.org/2000/svg" xmlns:xlink="http://www.w3.org/1999/xlink" x="0px" y="0px"

	 width="512px" height="512px" viewBox="0 0 512 512" enable-background="new 0 0 512 512" xml:space="preserve">

<g id="google-plus-icon">

	<path d="M462,141.347h-54.621v54.622h-27.311v-54.622h-54.622v-27.311h54.622V59.416h27.311v54.621H462V141.347z M307.583,367.26

		c0,40.943-37.384,90.787-131.434,90.787C107.365,458.047,50,428.379,50,378.478c0-38.514,24.383-88.511,138.323-88.511

		c-16.922-13.792-21.075-33.077-10.733-53.959c-66.714,0-100.879-39.222-100.879-89.023c0-48.731,36.242-93.032,110.15-93.032

		c18.66,0,118.398,0,118.398,0l-26.457,27.77h-31.079c21.925,12.562,33.586,38.433,33.586,66.949

		c0,26.175-14.413,47.375-34.983,63.279c-36.503,28.222-27.158,43.98,11.087,71.872C295.121,312.074,307.583,333.882,307.583,367.26

		z M233.738,150.453c-5.506-41.905-32.806-76.284-64.704-77.243c-31.909-0.949-53.309,31.119-47.798,73.035

		c5.509,41.905,35.834,71.178,67.749,72.139C220.882,219.333,239.242,192.363,233.738,150.453z M266.631,371.463

		c0-34.466-31.441-67.317-84.192-67.317c-47.542-0.523-87.832,30.042-87.832,65.471c0,36.154,34.335,66.25,81.879,66.25

		C237.267,435.866,266.631,407.617,266.631,371.463z"/>

</g>

</svg>
